symbols/web/monochrome_photos/materialsymbolsrounded/monochrome_photos_wght500grad200_40px.svg

<svg xmlns="http://www.w3.org/2000/svg" height="40" width="40"><path d="M20 32.25h13.917V11.5H20v3.083q-3.125 0-5.229 2.105-2.104 2.104-2.104 5.229 0 3.083 2.104 5.187T20 29.208Zm0-3.042v-3.125q1.667 0 2.938-1.229 1.27-1.229 1.27-2.937 0-1.709-1.25-2.959T20 17.708v-3.125q3.083 0 5.208 2.105 2.125 2.104 2.125 5.229 0 3.083-2.125 5.187T20 29.208Zm0-3.125q-1.708 0-2.958-1.229-1.25-1.229-1.25-2.937 0-1.709 1.25-2.959T20 17.708ZM6.083 36q-1.5 0-2.604-1.104T2.375 32.25V11.5q0-1.5 1.104-2.604t2.604-1.104h5.584l2.208-2.625q.542-.584 1.271-.917.729-.333 1.521-.333h6.666q.792 0 1.542.333t1.292.917l2.208 2.625h5.542q1.5 0 2.604 1.104t1.104 2.604v20.75q0 1.542-1.104 2.646Q35.417 36 33.917 36Z"/></svg>

<svg xmlns="http://www.w3.org/2000/svg" height="40" width="40"><path d="M20 32.25H33.917Q33.917 32.25 33.917 32.25Q33.917 32.25 33.917 32.25V11.5Q33.917 11.5 33.917 11.5Q33.917 11.5 33.917 11.5H20V14.583Q16.875 14.583 14.771 16.688Q12.667 18.792 12.667 21.917Q12.667 25 14.771 27.104Q16.875 29.208 20 29.208ZM20 29.208V26.083Q21.667 26.083 22.938 24.854Q24.208 23.625 24.208 21.917Q24.208 20.208 22.958 18.958Q21.708 17.708 20 17.708V14.583Q23.083 14.583 25.208 16.688Q27.333 18.792 27.333 21.917Q27.333 25 25.208 27.104Q23.083 29.208 20 29.208ZM20 26.083Q18.292 26.083 17.042 24.854Q15.792 23.625 15.792 21.917Q15.792 20.208 17.042 18.958Q18.292 17.708 20 17.708ZM6.083 36Q4.583 36 3.479 34.896Q2.375 33.792 2.375 32.25V11.5Q2.375 10 3.479 8.896Q4.583 7.792 6.083 7.792H11.667L13.875 5.167Q14.417 4.583 15.146 4.25Q15.875 3.917 16.667 3.917H23.333Q24.125 3.917 24.875 4.25Q25.625 4.583 26.167 5.167L28.375 7.792H33.917Q35.417 7.792 36.521 8.896Q37.625 10 37.625 11.5V32.25Q37.625 33.792 36.521 34.896Q35.417 36 33.917 36Z"/></svg>
